X: 62
T: Missa Quinti toni / Agnus Dei
N: Derived from Ock1012e-Missa_Quinti_toni-Agnus.krn
C: Johannes Ockeghem
%%abc-version 2.0
%%abcx-abcm2ps-target-version 5.9.1 (29 Sep 2008)
%%abc-creator hum2abc beta
%%abcx-conversion-date 2019/02/17 07:26:15
%%abc-edited-by Jesse Rodin
%%abc-edited-by Chris Gage 08-06-2012
%%abcx-initial-encoding-date 2012/08/09/
%%humdrum-veritas 3112908557
%%humdrum-veritas-data 2327567472
%%linebreak <none>
%%barnumbers 0
L: 1/4
M: 4/2
Q: 1/2=120
V: 1 clef=treble
V: 2 clef=treble-8
V: 3 clef=bass
K: F
[V:1] F6D2 | 
[V:2] F8 | 
[V:3] F,4D,4 | 
[V:1] D4B,2C2 | 
[V:2] B6A2 | 
[V:3] B,,4D,2C,2 | 
[V:1] D4C4 | 
[V:2] B4c4 | 
[V:3] G,4A,4 | 
[V:1] z2F4ED | 
[V:2] A8 | 
[V:3] F,3E,D,4 | 
[V:1] E4F2G2- | 
[V:2] G4A2G2 | 
[V:3] z2G,2D,2_E,2- | 
[V:1] G2F2_E2C2 | 
[V:2] c2d2c2_e2- | 
[V:3] E,D,B,,2C,4 | 
[V:1] _E4D4 | 
[V:2] e2c4=B2 | 
[V:3] z2C,2G,4 | 
[V:1] C2F4G2 | 
[V:2] c2A3B2G | 
[V:3] C,2D,4E,2 | 
[V:1] A4z2A2- | 
[V:2] F4E2F2 | 
[V:3] F,3E,/D,/C,2F,,2- | 
[V:1] A2GFE4 | 
[V:2] A2B2c4 | 
[V:3] F,,2G,,2A,,3B,, | 
[V:1] z2E4DC | 
[V:2] A2G2c4 | 
[V:3] C,4E,2F,2 | 
[V:1] =B,4C4 | 
[V:2] d4e2c2- | 
[V:3] D,4C,4 | 
[V:1] A,2F,3G,A,2- | 
[V:2] c2A2B2A2 | 
[V:3] F,4z4 | 
[V:1] A,2F,2G,4 | 
[V:2] F4E4 | 
[V:3] F,,4C,4 | 
[V:1] F,2A,2B,2C2- | 
[V:2] F4z4 | 
[V:3] z2D,4C,2 | 
[V:1] CB,/C/D4C2 | 
[V:2] E2D2F3G | 
[V:3] A,,2B,,2D,2E,2 | 
[V:1] A,2C2B,4 | 
[V:2] A4z2d2 | 
[V:3] F,4G,4 | 
[V:1] A,2C2D2C2 | 
[V:2] c2A2B2A2- | 
[V:3] z2F,2B,,2C,2 | 
[V:1] F3GE3F | 
[V:2] A2F2c4- | 
[V:3] D,4C,3D, | 
[V:1] G2A2G2A2- | 
[V:2] c4c4 | 
[V:3] E,2F,2C,2F,,2- | 
[V:1] A2F2G2E2 | 
[V:2] F2A2B2c2- | 
[V:3] F,,2F,2E,2C,2 | 
[V:1] D4C2A2- | 
[V:2] cAB2A2F2- | 
[V:3] G,4A,4 | 
[V:1] A2GFE3D/E/ | 
[V:2] F2F2G4 | 
[V:3] F,2D,2C,4 | 
[V:1] F4z4 | 
[V:2] F8 | 
[V:3] D,4B,,4 | 
[V:1] A4A4 | 
[V:2] z4c4 | 
[V:3] A,,2F,,4F,2 | 
[V:1] G2A4B2 | 
[V:2] B2c2d4 | 
[V:3] G,2F,2D,4 | 
[V:1] c4G2A2- | 
[V:2] c2e4f2 | 
[V:3] A,3G,E,2D,2 | 
[V:1] A2F2E4 | 
[V:2] d4z2c2 | 
[V:3] F,2B,,2C,2A,,2 | 
[V:1] z2G2A2F2 | 
[V:2] d2B2A4 | 
[V:3] G,,4D,4 | 
[V:1] G2E2D4 | 
[V:2] z2c2d2B2 | 
[V:3] C,4z2G,2 | 
[V:1] z2F2G2B2 | 
[V:2] c2A2G4 | 
[V:3] A,2D,2E,2G,2 | 
[V:1] A4G2B2- | 
[V:2] z2d2e2g2 | 
[V:3] D,4z4 | 
[V:1] BGA2c2B2 | 
[V:2] f4e2g2- | 
[V:3] D,4A,,2G,,2 | 
[V:1] G4A2G2- | 
[V:2] g2e3/d/c4 | 
[V:3] C,8 | 
[V:1] G2E2F2A2- | 
[V:2] B2c2d3e | 
[V:3] z4B,,2A,,2 | 
[V:1] A2G4c2- | 
[V:2] f2e2c4 | 
[V:3] F,,2C,4A,,2 | 
[V:1] c2=B2c4 | 
[V:2] d4c4 | 
[V:3] G,,4C,4 | 
[V:1] A4z4 | 
[V:2] z4f4 | 
[V:3] F,4D,2B,,2 | 
[V:1] G4E2D2 | 
[V:2] e2c4d2- | 
[V:3] z2C,4B,,2- | 
[V:1] F3GABA2- | 
[V:2] dcA2c2d2 | 
[V:3] B,,A,,F,,2F,4 | 
[V:1] A2G2F2E2- | 
[V:2] B4A2G2 | 
[V:3] G,4z2C,2- | 
[V:1] E2C2D3B, | 
[V:2] A4B2A2- | 
[V:3] C,2A,,2G,,2D,2 | 
[V:1] C2D3C/B,/A,2 | 
[V:2] AGFED2F2- | 
[V:3] A,,2B,,3A,,/G,,/F,,2- | 
[V:1] C4B,4 | 
[V:2] FGA2z2d2 | 
[V:3] F,,2F,,2G,,4 | 
[V:1] A,2C2D2F2- | 
[V:2] c2A2B3A/G/ | 
[V:3] A,,4z4 | 
[V:1] F2D2C4 | 
[V:2] F2G2A2c2- | 
[V:3] D,3E,F,4 | 
[V:1] z2A2G2E2 | 
[V:2] c2A2B2c2 | 
[V:3] C,2F,2E,2C,2 | 
[V:1] F2G2GFED | 
[V:2] d2B2c3B | 
[V:3] z2G,,2C,4 | 
[V:1] C2F2G2B2 | 
[V:2] AGF2E2D2 | 
[V:3] F,2D,2C,2B,,2 | 
[V:1] A2c4F2 | 
[V:2] F3GA3B | 
[V:3] D,2C,2F,3E,/D,/ | 
[V:1] E2F3DE2 | 
[V:2] c2F2G4 | 
[V:3] C,2D,2C,4 | 
[V:1] F8 ||  
[V:2] F8 ||  
[V:3] F,,8 ||  
[V:1]  [K:F] [K:clef=treble][M:4/2]F4F2GA | 
[V:2]  [K:F] [K:clef=treble-8][M:4/2]F8- | 
[V:3]  [K:F] [K:clef=bass][M:4/2]z8 | 
[V:1] BAGFA2G2 | 
[V:2] F4c4- | 
[V:3] z8 | 
[V:1] C2E2D2G,2 | 
[V:2] c4B4 | 
[V:3] z8 | 
[V:1] A,2C3=B,=B,A, | 
[V:2] c4d4 | 
[V:3] z8 | 
[V:1] C2E2D2G2- | 
[V:2] c4B4 | 
[V:3] z8 | 
[V:1] GFG4E2 | 
[V:2] z2B2c4 | 
[V:3] z8 | 
[V:1] D2F3EDC | 
[V:2] B3cd2_e2 | 
[V:3] z8 | 
[V:1] B,4z2C2- | 
[V:2] d4c4 | 
[V:3] z8 | 
[V:1] C2D4C2 | 
[V:2] F4B2c2 | 
[V:3] z8 | 
[V:1] F2G2A3F | 
[V:2] d3Bc2d2 | 
[V:3] z8 | 
[V:1] G2A2B2c2 | 
[V:2] e2f2g2c2- | 
[V:3] z8 | 
[V:1] C3DE3F | 
[V:2] cdefg2c2 | 
[V:3] z8 | 
[V:1] GAB3AGF | 
[V:2] B3cd4 | 
[V:3] z8 | 
[V:1] E2FG2AF2- | 
[V:2] c2B2c2F2 | 
[V:3] z8 | 
[V:1] FE/D/E2F4 | 
[V:2] G4F4 | 
[V:3] z8 | 
[V:1] z4F2G2 | 
[V:2] B2c2d4 | 
[V:3] z8 | 
[V:1] A4G2A2- | 
[V:2] c2d2e2f2 | 
[V:3] z8 | 
[V:1] AcBAc2BA- | 
[V:2] d4c2d2- | 
[V:3] z8 | 
[V:1] AFG2F2z2 | 
[V:2] dfed/e/f2ed- | 
[V:3] z8 | 
[V:1] B2A2G2B2- | 
[V:2] dBc2B2z2 | 
[V:3] z8 | 
[V:1] BAG2F4 | 
[V:2] f2e2d2f2- | 
[V:3] z8 | 
[V:1] A2B2A2c2- | 
[V:2] fed2c4 | 
[V:3] z8 | 
[V:1] c2A2G4 | 
[V:2] e2f2e2g2- | 
[V:3] z8 | 
[V:1] E2F2E2G2- | 
[V:2] g2d2c4 | 
[V:3] z8 | 
[V:1] G2E2D4 | 
[V:2] B2c2d2G2 | 
[V:3] z8 | 
[V:1] A,2B,2A,2C2- | 
[V:2] z2G2A3G | 
[V:3] z8 | 
[V:1] C2A,2G,4 | 
[V:2] E2F2G2B2- | 
[V:3] z8 | 
[V:1] G4A2GE- | 
[V:2] BAG2F2c2- | 
[V:3] z8 | 
[V:1] EC2B,/A,/G,CD=B, | 
[V:2] ce2g2ed2 | 
[V:3] z8 | 
[V:1] C4z2F2 | 
[V:2] c4d4 | 
[V:3] z8 | 
[V:1] E2C3=B,=B,2 | 
[V:2] c4z2f2 | 
[V:3] C,4D,4 | 
[V:1] C2E3FG2- | 
[V:2] e2c4B2 | 
[V:3] C,4z2C,2- | 
[V:1] G2F2G4 | 
[V:2] A4G4 | 
[V:3] C,2D,2E,4 | 
[V:1] A2c2B2G2 | 
[V:2] z2A2G2c2- | 
[V:3] C,4E,4 | 
[V:1] A2F2E2F2- | 
[V:2] c2B2c2A2 | 
[V:3] D,4C,4 | 
[V:1] F2E2F2G2 | 
[V:2] G4F2c2- | 
[V:3] z2C,2D,2E,2 | 
[V:1] A4G4 | 
[V:2] c2d2e4 | 
[V:3] F,4C,4 | 
[V:1] A4z2A2- | 
[V:2] d2c2z2f2 | 
[V:3] F,3E,D,4 | 
[V:1] A2G3F/E/D2 | 
[V:2] e2c2B4 | 
[V:3] C,4z4 | 
[V:1] C2E2F2G2- | 
[V:2] c4z2G2 | 
[V:3] C,4D,2E,2 | 
[V:1] GFD2E4 | 
[V:2] A2B2c3B | 
[V:3] F,2G,2C,2G,2- | 
[V:1] D4z2G2 | 
[V:2] G2A2B2c2 | 
[V:3] G,2F,2E,4 | 
[V:1] A2F2E3F | 
[V:2] F4G2A2 | 
[V:3] D,4C,4 | 
[V:1] G2A2B2c2- | 
[V:2] B2c2z2c2 | 
[V:3] z2C,2D,2E,2 | 
[V:1] cAB2c2BA- | 
[V:2] d4c4- | 
[V:3] F,2G,2A,2G,F,- | 
[V:1] AG/F/E4C2 | 
[V:2] c4c4 | 
[V:3] F,E,/D,/C,2z2A,2 | 
[V:1] D4z2C2 | 
[V:2] z4c4 | 
[V:3] G,2F,4E,2 | 
[V:1] D2F2E4 | 
[V:2] B4c4 | 
[V:3] D,4C,4 | 
[V:1] F2G2E2F2 | 
[V:2] A2G2c2F2 | 
[V:3] z2C,4D,2 | 
[V:1] EDC2D2E2 | 
[V:2] G2A2B3A/G/ | 
[V:3] E,2F,4G,2 | 
[V:1] F2A2G2c2- | 
[V:2] F4G3E | 
[V:3] A,2D,2E,D,C,B,, | 
[V:1] c2F2G2B2 | 
[V:2] F4D2E2 | 
[V:3] A,,2B,,3A,,G,,2 | 
[V:1] A3GE2D2 | 
[V:2] F2G2A2B2 | 
[V:3] F,,2C,4D,2 | 
[V:1] C2F4E2 | 
[V:2] c2F2G4 | 
[V:3] E,2F,2C,4 | 
[V:1] F8 |]  
[V:2] F8 |]  
[V:3] F,,8 |]  



